local/share/icons/dracula-icons-main/24/places/folder-camera.svg

<?xml version="1.0" encoding="UTF-8"?>
<svg xmlns="http://www.w3.org/2000/svg" xmlns:xlink="http://www.w3.org/1999/xlink" width="24" height="24" viewBox="0 0 24 24">
<path fill-rule="nonzero" fill="rgb(100%, 100%, 100%)" fill-opacity="1" d="M 9 6 L 8 7 L 7 7 C 5.890625 7 5 7.890625 5 9 L 5 16 C 5 17.109375 5.890625 18 7 18 L 17 18 C 18.109375 18 19 17.109375 19 16 L 19 9 C 19 7.890625 18.109375 7 17 7 L 16 7 L 15 6 Z M 9.828125 8 L 14.171875 8 L 15.171875 9 L 17 9 L 17 16 L 7 16 L 7 9 L 8.828125 9 Z M 12 9 C 10.34375 9 9 10.34375 9 12 C 9 13.65625 10.34375 15 12 15 C 13.65625 15 15 13.65625 15 12 C 15 10.34375 13.65625 9 12 9 Z M 12 11 C 12.550781 11 13 11.449219 13 12 C 13 12.550781 12.550781 13 12 13 C 11.449219 13 11 12.550781 11 12 C 11 11.449219 11.449219 11 12 11 Z M 12 11 "/>
</svg>

<svg width="24" height="24" version="1.1" viewBox="0 0 24 24" xmlns="http://www.w3.org/2000/svg">
 <defs>
  <style id="current-color-scheme" type="text/css">.ColorScheme-Text { color:#FFFFFF; } .ColorScheme-Highlight { color:#5294e2; }</style>
 </defs>
 <path class="ColorScheme-Text" fill="currentColor" d="m9 6-1 1h-1c-1.108 0-2 0.892-2 2v7c0 1.108 0.892 2 2 2h10c1.108 0 2-0.892 2-2v-7c0-1.108-0.892-2-2-2h-1l-1-1zm0.82812 2h4.3438l1 1h1.8281v7h-10v-7h1.8281zm2.1719 1a3 3 0 0 0-3 3 3 3 0 0 0 3 3 3 3 0 0 0 3-3 3 3 0 0 0-3-3zm0 2a1 1 0 0 1 1 1 1 1 0 0 1-1 1 1 1 0 0 1-1-1 1 1 0 0 1 1-1z"/>
</svg>
